X:1
T:Title
%%score { ( 1 4 ) | ( 2 3 ) }
L:1/8
M:6/4
K:Ab
V:1 treble nm="Grand Piano"
V:4 treble 
V:2 bass 
V:3 bass 
V:1
 z6 z4[Q:1/4=108] E2 | [CE]2 A2 B2 [Ec]4 cc | [Fd]2 A2 B2 [Ec]4 c2 | B2 =A2 B2 [Fd]2 c2 B2 | %4
 [A,CA]2 [EB]2 [Ac]2 [EGB]4 E2 | [CE]2 A2 B2 [Ec]2 c2 [_Ge]2 | [Fe]2 d2 c2 [Fd]4 d2 | %7
 c2 E2 c2 c3 A B2 | [CA]12 | .c12 | c12 | .d12 | c12 | e2 f2 e2 c2 B2 A2 | %14
 [Fd]2 [FA]2 [=Ed]2 c4 [Fd][Fd] |[M:13/8] c2 E2 c2 c2 c3 B2 |[M:5/4] A2- A2- A6 |] %17
V:2
 z6 z4 C2 | z2 C2 D2 z4 EE | z2[K:treble] F2 =E2[K:bass] z4 _E2 | [G,D]2 [_G,C]2 [=G,D]2 z2 E2 D2 | %4
 z2 G,2 A,2 E,4 D2 | z2 C2 D2 A,2- [A,-E]2 [C,A,]2 | z2[K:treble] F2 =E2[K:bass] z4 F2 | %7
 E2 C2 E2 [E,G,E]3 [E,A,C] [E,G,D]2 | [A,,A,]12 | %9
 [A,,A,]2 [A,,A,]2 [A,,A,]2 [A,,A,]2[K:treble] C2 F2 | [A,,A,]2 C,2 D,F, .A,6 | %11
 [E,B,]2 [E,A,]2 [E,G,]2 [E,B,]2[K:treble] F2 F2 | [A,,A,]2 C,2 D,F, A,4[K:treble] [A,E]2 | %13
 [A,CA]2 [A,DA]2 [A,CA]2 [A,EA]2 [A,DG]2 [A,_G]2 | [D,A,]2 [D,A,]2 [D,A,]2 [A,E]4 [D,A,][D,A,] | %15
[M:13/8] [E,A,E]2 [E,A,C]2 [D,A,E]2 [E,A,E]2 [E,G,E]3 [E,G,D]2 |[M:5/4] z2 G,2 F,2 E,4 |] %17
V:3
 x12 | [A,,A,]6 [A,,A,]6 | [D,A,]6[K:treble][K:bass] [A,,A,]6 | E,6 [E,,E,]6 | E,6 z6 | %5
 [A,,A,]6 .A,,6 | [D,A,]6[K:treble][K:bass] [D,A,]6 | [E,A,]6 z6 | x12 | x8[K:treble] x4 | x12 | %11
 x8[K:treble] x4 | x10[K:treble] x2 | x12 | x12 |[M:13/8] x13 |[M:5/4] A,,2- A,,2- A,,6 |] %17
V:4
 x12 | x12 | x12 | x12 | x12 | x12 | x12 | x12 | x12 | E2 E2 E2 E2 A2 d2 | E2 [A,A]2 [A,F]2 .E6 | %11
 G2 F2 B2 G2 d2 d2 | E2 [A,A]2 [A,F]2 E4 c2 | x12 | x12 |[M:13/8] x13 |[M:5/4] [A,C]2 E2 D2 C4 |] %17

